X:1
T:Psalm 18
T:F# minor       Israel Holdroyd, 1724
T:Nahum Tate and Nicholas Brady, 1698 New Version (Psalm 18)    88. 88. (L. M.)                   
T:Transcribed from The Spiritual Man's Companion, 1724
T:No Copyright.  Transcribed from Suffolk Harmony, 1786.
T:No Copyright.  Transcribed from Suffolk Harmony, 1786.
Z:No Copyright.  Transcribed from Suffolk Harmony, 1786.
%%score [ 1 2 3 4 ]
L:1/8
Q:1/4=90
M:3/4
K:A
V:1 treble nm="Tr." snm="Tr."
V:2 treble nm="C." snm="C."
V:3 treble-8 nm="T." snm="T."
V:4 bass nm="B." snm="B."
V:1
 F2 | (F2 G2) AG | F4 GF | F4 F2 | ^E4 G2 | c4 cB | (A2 B2) c2 | BA G4 | F4 AB | c4 cB | A4 G2 | %11
 (F2 G2) B2 | G4 AG | (F2 G2) A2 | (B2 AG) F2 | =G2 F4 | F4 GA | B4 B2 | AB c4 | (F2 B2) BA | %20
 B4 G2 | (A>G F2) G2 | A4 AG | F2 E4 | E4 E2 | A4 G2 | F4 ^E2 | F4 F2 | ^E4 C2 | (F2 ^E2) F2 | %30
 G4 c2 | BA G4 | F4 |] %33
V:2
 C2 | C4 C2 | (C2 D2) E2 | D4 D2 | C4 C2 | (C2 D2) E2 | D4 C2 | D2 C4 | C4 FG | A4 AG | F4 ED | %11
w: 1. No|change of|times * shall|ev- er|shock My|firm * af-|fec- tion,|Lord, to|thee; For *|thou hast *|al- ways *|
 (CD E2) F2 | ^E4 F2 | FEDE F2 | E4 F2 | E2 C4 | B,4 EF | G4 GF | E4 FC | D4 E2 | F4 E2 | %21
w: been * * my|rock, A|for- * * * tress|and de-|fense for|me. Thou *|my de- *|li- verer *|art, my|God, My|
 (E2 F2) E2 | C4 C2 | D2 B,4 | C4 CD | E4 ED | (C2 D2) ^E2 | D4 D2 | C4 C2 | C4 B,2 | C4 C2 | %31
w: trust * is|in thy|migh- ty|power: Thou *|art my *|shield * from|foes a-|broad, At|home my|safe- guard|
 D2 C4 | C4 |] %33
w: and my|tower.|
V:3
 F2 | (F2 ^E2) FG | (A2 B2) c2 | (F2 B2) BA | G4 G2 | A4 G2 | F4 F2 | G2 ^E4 | F4 c2 | f4 e2 | %10
w: 2. Let|the * e- *|ter- * nal|Lord * be *|praised, The|rock on|whose de-|fense I|rest; O'er|high- est|
 (d2 c2) B2 | (A2 G2) F2 | c4 c2 | d4 c2 | B4 B2 | c2 ^A4 | B4 B2 | e4 d2 | (c2 B2) A2 | %19
w: heav'ns * his|name * be|raised, Who|me with|his sal-|va- tion|blest. There-|fore to|ce- * le-|
 (G2 F2) E2 | B4 B2 | c4 B2 | A4 A2 | B2 G4 | A4 AB | c4 B2 | (A2 B2) c2 | (F2 B2) BA | G4 G2 | %29
w: brate * his|fame, My|grate- ful|voice to|heaven I'll|raise; And *|na- tions,|stran- * gers|to * his *|name, shall|
 (A2 G2) F2 | ^E4 F2 | G2 ^E4 | F4 |] %33
w: thus * be|taught to|sing his|praise.|
V:4
 F,2 | (F,2 C,2) F,^E, | (F,2 E,D,) C,2 | (D,>C, B,,2) B,,2 | C,4 C,B,, | (A,,2 B,,2) C,2 | %6
 (D,2 C,B,,) A,,2 | B,,2 C,4 | F,4 F,2 | F,4 A,2 | D,4 E,2 | (F,2 E,2) D,2 | C,4 F,E, | %13
 (D,2 E,2) F,2 | (=G,2 F,E,) D,2 | E,2 F,4 | B,,4 E,2 | E,4 G,2 | (A,2 G,2) F,2 | (E,2 D,2) C,2 | %20
 B,,4 E,2 | (C,2 D,2) E,2 | (F,2 E,D,) C,2 | D,2 E,4 | A,,4 A,,2 | A,4 E,2 | (F,2 E,D,) C,2 | %27
 (D,>C, B,,2) B,,2 | %28
"________________________________________________________________________________________________________________________________________\nEdited by B. C. Johnston, 2018.  1. Whole piece transposed up from F minor to F# minor.  2. Measure 27, Counter: last note changed from E to E#, like Treble." C,4 ^E,2 | %29
 (F,2 C,2) D,2 | (C,3 B,,) A,,2 | B,,2 C,4 | F,,4 |] %33

